svg/u1f3e3.svg

<svg viewBox="0 0 128 128" xmlns="http://www.w3.org/2000/svg">
  <rect height="71.72" fill="#E0E0E0" width="28.37" x="4.22" y="23.15"/>
  <rect height="31.88" fill="#E92A02" width="28.37" x="4.22" y="91.82"/>
  <path d="M5.92,39.42c0.14,0.29,24.05,0.09,24.41,0.12c0.63,0.05,0.7-0.75,0.7-1.22c0-0.47,0.04-4.6,0-4.93 c-0.05-0.47-0.31-0.63-1.15-0.63s-22.7,0.05-23.17,0.05c-0.47,0-0.79,0.1-0.84,0.68C5.82,34.08,5.82,39.21,5.92,39.42z" fill="#E92A02"/>
  <path d="M5.82,45.87c0-0.32,0.26-0.63,0.73-0.63s23.33,0.1,23.75,0.1c0.42,0,0.52,0.26,0.52,0.68 s0,4.51,0,4.93c0,0.42,0,1.15-0.47,1.21s-8.34,0-8.34,0s-0.05,14.21-0.1,14.94c-0.02,0.26,0,0.63-0.68,0.63 c-0.53,0-5.56,0-5.77-0.05c-0.21-0.05-0.47-0.37-0.47-1.26s0-14.42,0-14.42s-7.86-0.05-8.44-0.05s-0.63-0.42-0.68-1.21 C5.82,49.96,5.82,46.34,5.82,45.87z" fill="#E92A02"/>
  <rect height="64.86" fill="#B0B0B0" width="5.14" x="37.19" y="53.66"/>
  <rect height="64.25" fill="#B0B0B0" width="18.99" x="104.36" y="54.08"/>
  <rect height="67.94" fill="#DFDFDF" width="78.74" x="41.21" y="54.46"/>
  <path d="M125.75,84.58c0.52-0.01,0.8,0.1,0.8,0.58c0,0.48,0,7.2,0,7.48c0,0.29-0.14,0.51-0.49,0.51 s-91.12-0.53-91.39-0.51s-0.19-0.63-0.19-1.41c0-0.78,0-6.27,0-6.75s0.11-0.58,0.65-0.58S125.35,84.59,125.75,84.58z" fill="#FF511B"/>
  <path d="M47.9,64.43c-0.6,0-1.16,0.3-1.16,1.46s0,15.03,0,15.59c0,0.56,0.13,1.21,0.9,1.21s15.68,0,16.24,0 s0.99-0.47,0.99-1.16s0-15.46,0-16.11s-0.43-0.9-1.25-0.9C62.8,64.51,47.9,64.43,47.9,64.43z" fill="#6BA5AF"/>
  <path d="M73.18,64.82c-0.56-0.05-0.99,0.3-0.99,1.08s0,15.51,0,16.07s0.3,1.08,0.9,1.08 c0.6,0,15.72,0,16.28,0c0.56,0,0.86-0.52,0.86-1.38s0-15.38,0-15.98c0-0.6-0.39-0.9-1.29-0.9C88.05,64.77,73.7,64.86,73.18,64.82z" fill="#6BA5AF"/>
  <path d="M98.3,64.77c-0.6,0-0.99,0.47-0.99,1.29s0,15.42,0,15.94s0.26,1.12,0.73,1.12s15.72,0,16.33,0 c0.6,0,0.95-0.6,0.95-1.25c0-0.65,0-15.64,0-16.24c0-0.6-0.43-0.86-1.08-0.86S99.07,64.77,98.3,64.77z" fill="#6BA5AF"/>
  <rect height="18.36" fill="#A8CFD6" width="2.8" x="105.03" y="64.76"/>
  <rect height="18.24" fill="#A8CFD6" width="2.93" x="79.82" y="64.8"/>
  <rect height="18.23" fill="#A8CFD6" width="2.93" x="54.45" y="64.47"/>
  <rect height="6.94" fill="#395660" width="86.17" x="37.18" y="47.95"/>
  <rect height="5.47" fill="#6E8690" width="86.15" x="37.2" y="117.77"/>
  <path d="M43.79,112.34c0,0.81,0.7,1.41,1.41,1.41c0.71,0,52.15,0,52.15,0s-0.18,9.27,0,9.44 c0.17,0.17,19.35,0.23,19.52,0.05c0.17-0.17,0.25-29.97-0.08-30.15c-0.02-0.01-73.05-0.4-73.05-0.4S43.79,111.46,43.79,112.34z" fill="#3B5361"/>
  <rect height="16.43" fill="#6BA5AF" width="14.96" x="46.59" y="94.76"/>
  <rect height="16.48" fill="#6BA5AF" width="15.29" x="64.03" y="94.82"/>
  <rect height="16.48" fill="#6BA5AF" width="15.16" x="81.84" y="94.79"/>
  <rect height="26.27" fill="#6BA5AF" width="14.57" x="99.87" y="94.77"/>
  <path d="M86.47,116.34c0,0-0.01,6.55,0.16,6.98c0.11,0.27,6.49,0.22,6.6,0c0.1-0.2,0.11-6.76,0.11-6.76 L86.47,116.34z" fill="#3B5361"/>
  <path d="M82.52,103.09c-1.14,0.08-1.45,0.55-1.45,1.68s0.04,12.01,0.08,12.44c0.08,0.99,0.56,1.41,1.26,1.41 s14.32,0,14.91,0c0.66,0,0.98-0.47,1.03-1.07c0.05-0.6-0.04-12.46-0.04-13.06s-0.38-1.35-1.19-1.35S83.33,103.03,82.52,103.09z" fill="#E92C02"/>
  <path d="M84.46,105.07c-0.84,0-1.41,0.11-1.46,1.24c-0.03,0.81-0.11,4.06-0.11,4.6 c0,0.54-0.08,1.45,1.45,1.45c1.19,0,10.37,0.1,11.18,0.04c0.76-0.05,1-0.49,1.06-1.74c0.03-0.76,0-3.46,0-4.11s-0.48-1.36-1.44-1.4 C94.23,105.11,85.38,105.07,84.46,105.07z" fill="#E0E0E0"/>
</svg>

<svg viewBox="0 0 128 128" xmlns="http://www.w3.org/2000/svg">
  <defs/>
  <path d="M4.22,23.15 L32.59,23.15 L32.59,94.87 L4.22,94.87 L4.22,23.15 Z" fill="#E0E0E0"/>
  <path d="M4.22,91.82 L32.59,91.82 L32.59,123.7 L4.22,123.7 L4.22,91.82 Z" fill="#E92A02"/>
  <path d="M5.92,39.42 C6.06,39.71 29.97,39.51 30.33,39.54 C30.96,39.59 31.03,38.79 31.03,38.32 C31.03,37.85 31.07,33.72 31.03,33.39 C30.98,32.92 30.72,32.76 29.88,32.76 C29.04,32.76 7.18,32.81 6.71,32.81 C6.24,32.81 5.92,32.91 5.87,33.49 C5.82,34.08 5.82,39.21 5.92,39.42 Z" fill="#E92A02"/>
  <path d="M5.82,45.87 C5.82,45.55 6.08,45.24 6.55,45.24 C7.02,45.24 29.88,45.34 30.3,45.34 C30.72,45.34 30.82,45.6 30.82,46.02 C30.82,46.44 30.82,50.53 30.82,50.95 C30.82,51.37 30.82,52.1 30.35,52.16 C29.88,52.22 22.01,52.16 22.01,52.16 C22.01,52.16 21.96,66.37 21.91,67.1 C21.89,67.36 21.91,67.73 21.23,67.73 C20.7,67.73 15.67,67.73 15.46,67.68 C15.25,67.63 14.99,67.31 14.99,66.42 C14.99,65.53 14.99,52 14.99,52 C14.99,52 7.13,51.95 6.55,51.95 C5.97,51.95 5.92,51.53 5.87,50.74 C5.82,49.96 5.82,46.34 5.82,45.87 Z" fill="#E92A02"/>
  <path d="M37.19,53.66 L42.33,53.66 L42.33,118.52 L37.19,118.52 L37.19,53.66 Z" fill="#B0B0B0"/>
  <path d="M104.36,54.08 L123.35,54.08 L123.35,118.33 L104.36,118.33 L104.36,54.08 Z" fill="#B0B0B0"/>
  <path d="M41.21,54.46 L119.95,54.46 L119.95,122.4 L41.21,122.4 L41.21,54.46 Z" fill="#DFDFDF"/>
  <path d="M125.75,84.58 C126.27,84.57 126.55,84.68 126.55,85.16 C126.55,85.64 126.55,92.36 126.55,92.64 C126.55,92.93 126.41,93.15 126.06,93.15 C125.71,93.15 34.94,92.62 34.67,92.64 C34.4,92.66 34.48,92.01 34.48,91.23 C34.48,90.45 34.48,84.96 34.48,84.48 C34.48,84 34.59,83.9 35.13,83.9 C35.67,83.9 125.35,84.59 125.75,84.58 Z" fill="#FF511B"/>
  <path d="M47.9,64.43 C47.3,64.43 46.74,64.73 46.74,65.89 C46.74,67.05 46.74,80.92 46.74,81.48 C46.74,82.04 46.87,82.69 47.64,82.69 C48.41,82.69 63.32,82.69 63.88,82.69 C64.44,82.69 64.87,82.22 64.87,81.53 C64.87,80.84 64.87,66.07 64.87,65.42 C64.87,64.77 64.44,64.52 63.62,64.52 C62.8,64.51 47.9,64.43 47.9,64.43 Z" fill="#6BA5AF"/>
  <path d="M73.18,64.82 C72.62,64.77 72.19,65.12 72.19,65.9 C72.19,66.68 72.19,81.41 72.19,81.97 C72.19,82.53 72.49,83.05 73.09,83.05 C73.69,83.05 88.81,83.05 89.37,83.05 C89.93,83.05 90.23,82.53 90.23,81.67 C90.23,80.81 90.23,66.29 90.23,65.69 C90.23,65.09 89.84,64.79 88.94,64.79 C88.05,64.77 73.7,64.86 73.18,64.82 Z" fill="#6BA5AF"/>
  <path d="M98.3,64.77 C97.7,64.77 97.31,65.24 97.31,66.06 C97.31,66.88 97.31,81.48 97.31,82 C97.31,82.52 97.57,83.12 98.04,83.12 C98.51,83.12 113.76,83.12 114.37,83.12 C114.97,83.12 115.32,82.52 115.32,81.87 C115.32,81.22 115.32,66.23 115.32,65.63 C115.32,65.03 114.89,64.77 114.24,64.77 C113.59,64.77 99.07,64.77 98.3,64.77 Z" fill="#6BA5AF"/>
  <path d="M105.03,64.76 L107.83,64.76 L107.83,83.12 L105.03,83.12 L105.03,64.76 Z" fill="#A8CFD6"/>
  <path d="M79.82,64.8 L82.75,64.8 L82.75,83.04 L79.82,83.04 L79.82,64.8 Z" fill="#A8CFD6"/>
  <path d="M54.45,64.47 L57.38,64.47 L57.38,82.7 L54.45,82.7 L54.45,64.47 Z" fill="#A8CFD6"/>
  <path d="M37.18,47.95 L123.35,47.95 L123.35,54.89 L37.18,54.89 L37.18,47.95 Z" fill="#395660"/>
  <path d="M37.2,117.77 L123.35,117.77 L123.35,123.24 L37.2,123.24 L37.2,117.77 Z" fill="#6E8690"/>
  <path d="M43.79,112.34 C43.79,113.15 44.49,113.75 45.2,113.75 C45.91,113.75 97.35,113.75 97.35,113.75 C97.35,113.75 97.17,123.02 97.35,123.19 C97.52,123.36 116.7,123.42 116.87,123.24 C117.04,123.07 117.12,93.27 116.79,93.09 C116.77,93.08 43.74,92.69 43.74,92.69 C43.74,92.69 43.79,111.46 43.79,112.34 Z" fill="#3B5361"/>
  <path d="M46.59,94.76 L61.55,94.76 L61.55,111.19 L46.59,111.19 L46.59,94.76 Z" fill="#6BA5AF"/>
  <path d="M64.03,94.82 L79.32,94.82 L79.32,111.3 L64.03,111.3 L64.03,94.82 Z" fill="#6BA5AF"/>
  <path d="M81.84,94.79 L97,94.79 L97,111.27 L81.84,111.27 L81.84,94.79 Z" fill="#6BA5AF"/>
  <path d="M99.87,94.77 L114.44,94.77 L114.44,121.04 L99.87,121.04 L99.87,94.77 Z" fill="#6BA5AF"/>
  <path d="M86.47,116.34 C86.47,116.34 86.46,122.89 86.63,123.32 C86.74,123.59 93.12,123.54 93.23,123.32 C93.33,123.12 93.34,116.56 93.34,116.56 L86.47,116.34 Z" fill="#3B5361"/>
  <path d="M82.52,103.09 C81.38,103.17 81.07,103.64 81.07,104.77 C81.07,105.9 81.11,116.78 81.15,117.21 C81.23,118.2 81.71,118.62 82.41,118.62 C83.11,118.62 96.73,118.62 97.32,118.62 C97.98,118.62 98.3,118.15 98.35,117.55 C98.4,116.95 98.31,105.09 98.31,104.49 C98.31,103.89 97.93,103.14 97.12,103.14 C96.31,103.14 83.33,103.03 82.52,103.09 Z" fill="#E92C02"/>
  <path d="M84.46,105.07 C83.62,105.07 83.05,105.18 83,106.31 C82.97,107.12 82.89,110.37 82.89,110.91 C82.89,111.45 82.81,112.36 84.34,112.36 C85.53,112.36 94.71,112.46 95.52,112.4 C96.28,112.35 96.52,111.91 96.58,110.66 C96.61,109.9 96.58,107.2 96.58,106.55 C96.58,105.9 96.1,105.19 95.14,105.15 C94.23,105.11 85.38,105.07 84.46,105.07 Z" fill="#E0E0E0"/>
</svg>
